src/assets/icons/st.svg

<svg width="34" height="24" viewBox="0 0 34 24" fill="none" xmlns="http://www.w3.org/2000/svg">
<rect x="0.5" y="0.5" width="33" height="23" rx="2.5" fill="#009EE0" stroke="#009EE0"/>
<path d="M9.02344 14.0859C9.12891 15.7266 10.4414 16.7168 12.3633 16.7168C14.4609 16.7168 15.8789 15.6035 15.8789 13.9277C15.8789 12.7852 15.2285 12.082 13.793 11.6309L12.9258 11.3613C12.1289 11.1094 11.7891 10.7637 11.7891 10.2949C11.7891 9.69727 12.4219 9.26367 13.248 9.26367C14.1211 9.26367 14.7598 9.73828 14.8652 10.4473H16.5352C16.4824 8.90625 15.1758 7.82812 13.3184 7.82812C11.4082 7.82812 9.99023 8.95898 9.99023 10.5059C9.99023 11.5957 10.7051 12.4277 11.9531 12.8145L12.832 13.0898C13.7461 13.377 14.0977 13.6816 14.0977 14.1738C14.0977 14.8359 13.4414 15.2812 12.4922 15.2812C11.5781 15.2812 10.8574 14.8125 10.7344 14.0859H9.02344ZM20.6074 16.5L22.0957 9.55664H24.627L24.9375 8.04492H18.0938L17.7832 9.55664H20.3145L18.8262 16.5H20.6074Z" fill="white"/>
</svg>

<svg width="34" height="24" fill="none" xmlns="http://www.w3.org/2000/svg"><rect x=".5" y=".5" width="33" height="23" rx="2.5" fill="#009EE0" stroke="#009EE0"/><path d="M9.023 14.086c.106 1.64 1.418 2.63 3.34 2.63 2.098 0 3.516-1.113 3.516-2.788 0-1.143-.65-1.846-2.086-2.297l-.867-.27c-.797-.252-1.137-.597-1.137-1.066 0-.598.633-1.031 1.459-1.031.873 0 1.512.474 1.617 1.183h1.67c-.053-1.54-1.36-2.619-3.217-2.619-1.91 0-3.328 1.131-3.328 2.678 0 1.09.715 1.922 1.963 2.309l.879.275c.914.287 1.266.592 1.266 1.084 0 .662-.657 1.107-1.606 1.107-.914 0-1.635-.469-1.758-1.195h-1.71zM20.607 16.5l1.489-6.943h2.531l.31-1.512h-6.843l-.31 1.512h2.53L18.826 16.5h1.781z" fill="#fff"/></svg>
